src/Assets/icons/baidu.svg

<svg fill="currentColor" class="svg-icon" xmlns="http://www.w3.org/2000/svg" viewBox="0 0 512 512" xml:space="preserve"><path d="M140.086 79.921C140.086 36.269 164.938 1 195.615 1c30.653 0 55.442 35.269 55.442 78.921 0 43.64-24.79 78.97-55.442 78.97-30.677.001-55.529-35.33-55.529-78.97zm187.709 84.174c41.033 5.365 67.319-38.4 72.597-71.573 5.377-33.147-21.146-71.686-50.128-78.297-29.131-6.687-65.473 39.935-68.753 70.326-3.992 37.201 5.302 74.291 46.284 79.544zM92.466 270.287c55.542-11.928 47.957-78.372 46.323-92.906-2.732-22.395-29.044-61.493-64.774-58.387-44.962 4.017-51.524 68.979-51.524 68.979-6.101 30.078 14.533 94.279 69.975 82.314zm335.783 88.826s-63.426-49.066-100.454-102.138c-50.276-78.234-121.613-46.371-145.466-6.637-23.791 39.824-60.745 64.974-66.047 71.662-5.327 6.537-76.625 45.061-60.806 115.387 15.869 70.275 71.436 68.939 71.436 68.939s40.97 4.006 88.489-6.611c47.62-10.592 88.59 2.607 88.59 2.607s111.059 37.252 141.425-34.42c30.378-71.597-17.167-108.789-17.167-108.789zm62.079-139.289c0-15.87-13.137-63.688-62.079-63.688-49.004 0-55.504 45.137-55.504 77.037 0 30.427 2.545 72.871 63.414 71.56 60.819-1.348 54.169-68.929 54.169-84.909z"/></svg>

<svg fill="currentColor" class="svg-icon" version="1.1" xmlns="http://www.w3.org/2000/svg" xmlns:xlink="http://www.w3.org/1999/xlink" viewBox="0 0 512 512" xml:space="preserve">

<g id="7935ec95c421cee6d86eb22ecd115711">

<path style="display: inline;" d="M140.086,79.921C140.086,36.269,164.938,1,195.615,1c30.653,0,55.442,35.269,55.442,78.921
		c0,43.64-24.79,78.97-55.442,78.97C164.938,158.892,140.086,123.561,140.086,79.921z M327.795,164.095
		c41.033,5.365,67.319-38.4,72.597-71.573c5.377-33.147-21.146-71.686-50.128-78.297c-29.131-6.687-65.473,39.935-68.753,70.326
		C277.519,121.752,286.813,158.842,327.795,164.095z M92.466,270.287c55.542-11.928,47.957-78.372,46.323-92.906
		c-2.732-22.395-29.044-61.493-64.774-58.387c-44.962,4.017-51.524,68.979-51.524,68.979
		C16.39,218.051,37.024,282.252,92.466,270.287z M428.249,359.113c0,0-63.426-49.066-100.454-102.138
		c-50.276-78.234-121.613-46.371-145.466-6.637c-23.791,39.824-60.745,64.974-66.047,71.662
		c-5.327,6.537-76.625,45.061-60.806,115.387c15.869,70.275,71.436,68.939,71.436,68.939s40.97,4.006,88.489-6.611
		c47.62-10.592,88.59,2.607,88.59,2.607s111.059,37.252,141.425-34.42C475.794,396.305,428.249,359.113,428.249,359.113z
		 M490.328,219.824c0-15.87-13.137-63.688-62.079-63.688c-49.004,0-55.504,45.137-55.504,77.037c0,30.427,2.545,72.871,63.414,71.56
		C496.978,303.385,490.328,235.804,490.328,219.824z">

</path>

</g>

</svg>
